Numix/16/mimetypes/application-vnd.tcpdump.pcap.svg

<?xml version="1.0" encoding="UTF-8" standalone="no"?>
<svg
   xmlns:dc="http://purl.org/dc/elements/1.1/"
   xmlns:cc="http://creativecommons.org/ns#"
   xmlns:rdf="http://www.w3.org/1999/02/22-rdf-syntax-ns#"
   xmlns:svg="http://www.w3.org/2000/svg"
   xmlns="http://www.w3.org/2000/svg"
   xmlns:sodipodi="http://sodipodi.sourceforge.net/DTD/sodipodi-0.dtd"
   xmlns:inkscape="http://www.inkscape.org/namespaces/inkscape"
   width="16"
   height="16"
   viewBox="0 0 16 16"
   id="svg2"
   version="1.1"
   inkscape:version="0.91 r13725"
   sodipodi:docname="application-vnd.tcpdump.pcap.svg">
  <metadata
     id="metadata16">
    <rdf:RDF>
      <cc:Work
         rdf:about="">
        <dc:format>image/svg+xml</dc:format>
        <dc:type
           rdf:resource="http://purl.org/dc/dcmitype/StillImage" />
        <dc:title />
      </cc:Work>
    </rdf:RDF>
  </metadata>
  <defs
     id="defs14">
    <clipPath
       id="clipPath-258929573">
      <g
         transform="translate(0,-1004.3622)"
         id="g17">
        <path
           inkscape:connector-curvature="0"
           d="m -24,13 c 0,1.105 -0.672,2 -1.5,2 -0.828,0 -1.5,-0.895 -1.5,-2 0,-1.105 0.672,-2 1.5,-2 0.828,0 1.5,0.895 1.5,2 z"
           transform="matrix(15.333333,0,0,11.5,414.99999,878.8622)"
           style="fill:#1890d0"
           id="path19" />
      </g>
    </clipPath>
  </defs>
  <sodipodi:namedview
     pagecolor="#ffffff"
     bordercolor="#666666"
     borderopacity="1"
     objecttolerance="10"
     gridtolerance="10"
     guidetolerance="10"
     inkscape:pageopacity="0"
     inkscape:pageshadow="2"
     inkscape:window-width="1920"
     inkscape:window-height="1013"
     id="namedview12"
     showgrid="true"
     inkscape:zoom="128"
     inkscape:cx="5.433781"
     inkscape:cy="7.2463416"
     inkscape:window-x="0"
     inkscape:window-y="27"
     inkscape:window-maximized="1"
     inkscape:current-layer="svg2">
    <inkscape:grid
       type="xygrid"
       id="grid3018" />
  </sodipodi:namedview>
  <path
     style="fill:#af5b63;fill-opacity:1"
     d="M 2.667969,-4.46e-4 C 2.324219,-4.46e-4 2,0.3378121 2,0.6964468 L 2,15.303108 C 2,15.641365 2.34375,16 2.667969,16 l 10.664062,0 C 13.65625,16 14,15.641365 14,15.303108 l 0,-11.303554 -4,-4 z"
     id="path4-7"
     inkscape:connector-curvature="0"
     sodipodi:nodetypes="ssssssccs" />
  <path
     style="fill:#000000;fill-opacity:0.19599998"
     d="m 10.583223,3.331585 0.0154,0.019531 0.04005,-0.019531 z M 10.613,3.999554 14,7.663616 14,3.999554 z"
     id="path6-6"
     inkscape:connector-curvature="0"
     sodipodi:nodetypes="cccccccc" />
  <path
     style="fill:#ffffff;fill-opacity:0.39200003"
     d="m 10,-4.46e-4 3.996396,4 -3.383784,0 C 10.313513,3.999554 10,3.6824369 10,3.3833376 z"
     id="path8-0"
     inkscape:connector-curvature="0"
     sodipodi:nodetypes="ccssc" />
  <path
     style="opacity:1;fill:#f9f9f9;fill-opacity:1;fill-rule:nonzero;stroke:none;stroke-width:2;stroke-miterlimit:4;stroke-dasharray:none;stroke-opacity:1"
     d="M 6.9980469 5 C 6.2293017 5 5.4602736 5.2925488 4.8769531 5.8769531 C 3.7102866 7.0457336 3.7063523 8.9600973 4.8730469 10.128906 C 5.8615053 11.119177 7.3873314 11.270358 8.5390625 10.582031 L 10.765625 12.794922 C 11.057293 13.078531 11.518394 13.066126 11.796875 12.769531 C 12.075387 12.472935 12.067091 12.006266 11.775391 11.722656 L 9.5507812 9.5800781 C 10.261491 8.4227767 10.115702 6.8772994 9.1171875 5.8769531 C 8.5338542 5.2925488 7.7667921 5 6.9980469 5 z M 7 6 C 7.510808 6 8.0207434 6.1944677 8.4121094 6.5859375 C 9.1948414 7.3688772 9.1948414 8.6291701 8.4121094 9.4121094 C 7.6293764 10.195049 6.3706236 10.195049 5.5878906 9.4121094 C 4.8051586 8.6291701 4.8051586 7.3688772 5.5878906 6.5859375 C 5.9792576 6.1944678 6.489192 6 7 6 z M 6 7 L 6 9 L 7 9 L 7 7 L 6 7 z "
     id="rect4198" />
</svg>

<svg xmlns="http://www.w3.org/2000/svg" viewBox="0 0 16 16">
 <defs>
  
 </defs>
 <path d="m 2.668 0 c -0.344 0 -0.668 0.338 -0.668 0.697 l 0 14.607 c 0 0.338 0.344 0.697 0.668 0.697 l 10.664 0 c 0.324 0 0.668 -0.359 0.668 -0.697 l 0 -11.304 -4 -4 z" style="fill:#af5b63;fill-opacity:1"/>
 <path d="m 10.583 3.332 0.015 0.02 0.04 -0.02 z m 0.03 0.668 3.387 3.664 0 -3.664 z" style="fill:#000;fill-opacity:0.196"/>
 <path d="m 10 0 3.996 4 -3.384 0 c -0.299 0 -0.613 -0.317 -0.613 -0.616 z" style="fill:#fff;fill-opacity:0.392"/>
 <path d="m 6.998 5 c -0.769 0 -1.538 0.293 -2.121 0.877 c -1.167 1.169 -1.171 3.083 -0.004 4.252 c 0.988 0.99 2.514 1.141 3.666 0.453 l 2.227 2.213 c 0.292 0.284 0.753 0.271 1.031 -0.025 c 0.279 -0.297 0.27 -0.763 -0.021 -1.047 l -2.225 -2.143 c 0.711 -1.157 0.565 -2.703 -0.434 -3.703 c -0.583 -0.584 -1.35 -0.877 -2.119 -0.877 z m 0.002 1 c 0.511 0 1.021 0.194 1.412 0.586 c 0.783 0.783 0.783 2.043 0 2.826 c -0.783 0.783 -2.041 0.783 -2.824 0 c -0.783 -0.783 -0.783 -2.043 0 -2.826 c 0.391 -0.391 0.901 -0.586 1.412 -0.586 z m -1 1 l 0 2 l 1 0 l 0 -2 l -1 0 z" style="fill:#f9f9f9;opacity:1;fill-opacity:1;stroke:none;fill-rule:nonzero"/>
</svg>
